X: 42
T: Yell in the Shoats
B: canberra pickers and fiddlers
B: tunes
M:4/4
L:1/8
Q: 1/4=100
K:D
V:1 
"D"d3 dd2 d2-|dABA A3A|d2d2 dABA|"A"AFEF "D"D2D2|
d3 d d2d2-|d ABA ABAB|d2 d2 ABBd|AF"A"EF "D"D2 DD|
D2AG FGAD|D2AF "A"EF"D"DD|D2AG FGAA|"G"BdAF "A"EFDD|
"D"D2AG FGAD|D2AF "A"EFDD|"D"D2AG FGAA|"G"Bd"D"AF "A"EF"D"DA|
dBAG FGAA|dBAF "A"EF"D"DA|dBAG FGAA|"G"BdAF "A"EFDA|
"D"dBAG FGAA|"G"dBAF "A"EFDA|"D"dBAG FGAA|"G"BdAF "A"EFD2|
% abcbook-tune_id 63da59349b8c1191c72d98ac
% abcbook-tune_composer_id 
% abcbook-link-0 https://www.youtube.com/watch?v=xQB7RBlDoHI
% abcbook-boost 10
% abcbook-difficulty 0
% abcbook-tags canberra pickers and fiddlers,old time tunes,© free
% abcbook-tablature 
% abcbook-transpose 
% abcbook-tuning DDAD
% abcbook-lastupdated 1739262703951
% abcbook-src-url https://tunebook.net/scrape/tunes.abc
% abcbook-soundfonts 
% abcbook-repeats 1
%%gchordfont "itim-music,Itim" 20

